X: 1
T: Girl With The Blue Dress On, The
Z: OsvaldoLaviosa
S: https://thesession.org/tunes/5762#setting5762
R: polka
M: 2/4
L: 1/8
K: Gmaj
B/c/|dB/d/ cA/c/|BG G/F/G/B/|AF F/E/F/G/|AG GB/c/|
dB/d/ cA/c/|BG G/F/G/B/|AF F/E/F/G/|AG G:|
|:z|GB/d/ g>f|ff e2|DF/A/ f>e|ed d2|
GB/d/ g>f|fe e>g|fa ef|g2 g:|
